X:1
T: La Tempete
C:
R:Reel
Q: 232
K:C
M:4/4
L:1/8
|:c2 GG G2 G2|e2 c2 c4|d2 G2 A2 B2|c2 e2 g4|c2 GG G2 G2|e2 c2 c4|d2 G2 A2 B2|c2 z2 c2 z2:|
|:g2 ee e2 c2|d2 B2 G4|g2 ee e2 c2|d2 B2 G4|c2 GG G4|e2 c2 c4|d2 G2 A2 B2|c2 z2 c2 z2:|
c3e g2 e2|a2 f2 g2 e2|f2 d2 e2 c2|dc BA G4|c3e g2 e2|a2 f2 g2 e2|f2 d2 e2 c2|d2 B2 c4|
g2 ee e2 c2|d2 B2 G4|g2 ee e2 c2|d2 B2 G4|c3e g2 e2|a2 f2 g2 e2|f2 d2 e2 c2|d2 B2 c4||
